X:1
T:Title
%%score { ( 1 2 5 ) | ( 3 4 ) }
L:1/8
M:4/4
K:F
V:1 treble nm="Grand Piano"
V:2 treble 
V:5 treble 
V:3 bass 
V:4 bass 
V:1
 z4 z2[Q:1/4=100] F2 | z fed cB[CEA][B,EG] | Ffed cBE-[EG] | z E z G z GA=B | %4
 c-[F,Dc]c-[A,Fc] [Ec]3 [Fc] | [Fd]2 d2 d4 | c2 c2 c4 | [Af]2 c2 BA[B,FG]F | %8
 [CFA]2 [B,EG]2 [A,F]4 | z4 c4 |[M:3/4] G2 G2 .[EG]2 |[M:1/4] z2 |[M:4/4] c2 G2 c2 G2 | %13
 c2 G2 [Ec]4 | z fed cBAG | z fed c3 c | d2 e2 [Ff]3 [=B,F] | [CFA]4 [CEG]4 | %18
[M:7/4] [A,F]6 z2 z2 z4 |[M:4/4] [DFB]8 | [CFA]8 |] %21
V:2
 z4 z2 z B, | F2 z2 z4 | z4 z2 .[CA]2 | F2 F2 F2 F2 | .E2 .E2 z4 | z A, z C [DF]2 B[Ad] | %6
 [B,G]B[CA]G z EF[Gc] | x8 | x8 | .[CEG]2 [CEG][DFG] [EG]AG[DFG] |[M:3/4] [CE]D [CE]F c-[Ac-] | %11
[M:1/4] [Gc][DFc] |[M:4/4] [CE]FEF [CE]FEF | [CE]FEF CDCc | F2 z2 z4 | F2 z2 z4 | x8 | x8 | %18
[M:7/4] x14 |[M:4/4] x8 | x8 |] %21
V:3
 z4 z2 [F,A,]G, | z4 .E2[K:bass] z2 | [F,A,]2[K:treble] [G,B,F]2 [A,CF]2[K:bass] z B, | %3
 A,G,A,B, [D,A,]2 [D,F,]2 | .[C,G,]2 .[C,G,]2 [C,G,]3 [F,A,] | .[B,,B,]2 .[F,B,F]2 B,A,G,F, | %6
 z D z B, [A,F]G,A,[F,B,] | [F,C]2 [F,A,F]2 DC z A, | C,2 C,2 F,4 | %9
 z =B,C,C, z[K:treble] FE[K:bass]C, |[M:3/4] z =B, z D z F |[M:1/4] EC, |[M:4/4] z D z D z D z D | %13
 z D z D C,B,A,[G,B,E] | [F,A,]2[K:treble] [A,F]F ED[F,F]-[F,B,F] | %15
 [F,A,]2 [G,B,F]2 [A,CF]3 [F,A,F] | [B,DF]2 [G,B,G]2[K:bass] [D,A,]3 D, | C,4 C,4 | %18
[M:7/4] F,6 z2 z2 z4 |[M:4/4] B,,8 | F,,8 |] %21
V:4
 x8 | [A,C]2 [B,DF]2 C-[CD][K:bass]C,C, | z4[K:treble] z2[K:bass] C,2 | D,2 D,2 z4 | x8 | x8 | %6
 E,2 E,2 F,4 | z4 [F,F]2 F,2 | x8 | C,2 z2 C,4[K:treble][K:bass] |[M:3/4] C,2 C,2 C,2- | %11
[M:1/4] C, z |[M:4/4] C,2 C,2 C,2 C,2 | C,2 C,2 z4 | z2[K:treble] F,2 [F,F]2 .C2 | x8 | %16
 x4[K:bass] x4 | x8 |[M:7/4] x14 |[M:4/4] x8 | x8 |] %21
V:5
 x8 | x8 | x8 | x8 | x8 | z4 z2 B,2 | x8 | x8 | x8 | x8 |[M:3/4] x6 |[M:1/4] x2 |[M:4/4] x8 | x8 | %14
 x8 | x8 | x8 | x8 |[M:7/4] x14 |[M:4/4] x8 | x8 |] %21

